X:1
T:Trois mois y a
T:Lefe
T:Source : Livre XVI de 29 chansons nouvelles à 4 parties---Paris---P.Attaingnant---1545. Editor : André Vierendeels (29/06/18) Notes : Original clefs : G2, C2, C3, C4 Original note values have been halved Editorial accidentals above the staff 
T:-natural
T:Trois mois y a
T:©
T:©
T:©
C:Lefe
Z:©
%%score [ 1 2 3 4 ]
L:1/8
Q:1/4=120
M:2/2
K:C
V:1 treble nm="Soprano" snm="S"
V:2 treble nm="Alto" snm="A"
V:3 treble-8 nm="Tenor" snm="T"
V:4 bass nm="Bass" snm="B"
V:1
 c4 c2 B2 | ABcd e2 g2 | f2 e2 d2 e2- | edcB c4 | B2 d2 e2 g2 | f2 e3 d d2- | dc c4 B2 | c8 | %8
w: Trois mois y|a _ _ _ _ que|i'at- tens ung bon-||iour, que i'at- tens|un bon- * *||iour,|
 z4 z2 c2 | c2 c2 B2 G2 | c3 d ef e2- | e2 d2 e2 e2 | d2 c2 d4 | B4 z4 | z2 f2 e2 d2 | c4 B4 | %16
w: et|que i'es- poir u-|ne _ _ _ _|_ _ _ seul-|le bon- ne'heu-|re,|dont mon es-|prit in-|
 c2 c2 B2 A2- | AG E2 F4 |[M:2/4] E4 |:[M:2/2] z2 G2 A4 | A4 G4 | z2 G2 c2- cd | e2 g2 f2 e2 | %23
w: ces- sa- ment la-|* * * beu-|re,|ay _|pen- ser,|voil- là _ _|_ tout mon se-|
 d2 e2- edcB | c4 B2 d2 | e2 g2 f2 e2- | ed d2- dc c2- | c2 B2 !fermata!c4 :| %28
w: |* iour, voil-|là tout mon se-||* * iour|
V:2
 G4 A2 G2 | E2 A2 A2 B2 | c2 G2 _B2 A2- | A2 G4 F2 | G4 z2 G2 | A2 c4 B2 | c2 A2 G4 | E2 F2 E2 F2 | %8
w: Trois mois y|a que i'at- tens|ung bon- * *||iour, que|i'at- tens ung|bon- * *|iour, et que i'es-|
 G3 F ED C2- | C2 F2 D2 E2 | F2 F2 G2 FE | F4 E4 | z4 z2 F2 | E2 D4 C2- | C2 D2 E2 G2- | G2 F2 G4 | %16
w: poir _ _ _ _|_ me seul- le|bon- ne'heu- * * *|* re,|dont|mon es- prit|_ in ces- sa-|* * ment|
 C3 D E2 A,2 | C4 D4 |[M:2/4] G,4 |:[M:2/2] z2 E2 C4 | F4 E2 E2 | G2 G2 E2 A2 | A2 B2 c2 G2 | %23
w: la- * * *|* beu-|re,|ay _|pen- ser, ay|_ pen- ser, vol-|là tout mon se-|
 _B2 A4 G2- | G2 F2 G4 | z2 G2 A2 c2- | c2 B2 c2 A2 | G4 !fermata!G4 :| %28
w: |* * iour,|voil- là tout|_ mon se- *|* iour.|
V:3
 c4 A2 B2 | c2 e2 e2 e2 | cdef gfed | e6 c2 | d2 G2 c2 e2 | d2 c2 g4 | f2 e2 d4 | c2 c2 c2 c2 | %8
w: Trois mois y|a que i'at- tens|ung _ _ _ _ _ _ _|_ bon-|iour, que i'at- tens|ung bon- *||iour, et que i'es-|
 B2 G2 c2 c2 | A4 B2 c2- | c2 BA B2 c2 | d4 A4 | z2 c2 B2 A2 | G2 B2 A2 A2 | G2 A2 c2 B2 | %15
w: poir me seul- le|bon _ _|_ _ _ _ _|ne'heu- re,|dont mon es-|prit in ces- sa-|ment la- beu- *|
 c3 d e4 | A4 B2 d2- | d2 c4 B2 |[M:2/4] c4 |:[M:2/2] z2 c4 A2 | d4 B2 c2 | c2 B2 c2 e2 | %22
w: |||re,|ay _|pen- ser, ay|_ pen- ser, voil-|
 e2 e2 cdef | gfed e4- | e2 c2 d2 G2 | c2 e2 d2 c2 | g4 f2 e2 | d4 !fermata!c4 :| %28
w: là tout mon _ _ _|_ _ _ _ _|* se- iour, vol-|là tout mon _|_ _ _|se- iour.|
V:4
 C,4 F,2 G,2 | A,G,A,B, C2 G,2 | A,2 C2 _B,2 C2- |"^-natural" CB,A,G, A,4 | G,4 C,4 | %5
w: Trois mois y|a _ _ _ _ que|i'at- tens ung bon-||iour, trois|
 F,2 A,2 G,2 G,2 | A,2 C2 G,2 G,2 | C,2 F,2 A,2 A,2 | G,F,E,D, C,2 A,2 | F,2 F,2 G,2 E,2 | %10
w: mois y a que|i'at- tens ung bon|iour, et que i'es-|poir _ _ _ _ me|seul- le bon- *|
 A,4 G,4 | z4 z2 C2 | B,2 A,2 G,2 D,2 | E,2 G,2 D,2 F,2 | E,2 D,2 C,2 G,2 | A,2 A,2 G,4 | %16
w: ne'heur- re,|dont|mon es- prit in-|ces- sa- ment, dont|mon es- prit in-|ces- sa- ment|
 F,3 E,/F,/ G,2 F,2- | F,2 E,2 D,4 |[M:2/4]"^-natural" C,4 |:[M:2/2] z2 C,2 F,4 | D,4 E,2 C,2 | %21
w: la- * * * *|* * beu-|re,|ay _|pen- ser, ay|
 G,2 G,2 A,G,A,B, | C2 G,2 A,2 C2 | _B,2 C3 =B, A,G, | A,4 G,4 | C,4 F,2 A,2 | G,2 G,2 A,2 C2 | %27
w: _ pen ser _ _ _|_ voil- là tout|mon se- * * *|* iour,|ay _ pen-|ser, voil- là tout|
 G,2 G,2 !fermata!C,4 :| %28
w: mon se- iour.|

